icons/src/fluent/svg/backpack_24_filled.svg

<svg width="24" height="24" viewBox="0 0 24 24" fill="none" xmlns="http://www.w3.org/2000/svg">
<path d="M12 2C10.0387 2 8.4291 3.50566 8.26396 5.42415C5.72794 6.76594 4 9.43118 4 12.5V14H20V12.5C20 9.43118 18.2721 6.76594 15.736 5.42415C15.5709 3.50566 13.9613 2 12 2ZM20 15.7143H9.5V17.25C9.5 17.6642 9.16421 18 8.75 18C8.33579 18 8 17.6642 8 17.25V15.7143H4V18.75C4 20.5449 5.45507 22 7.25 22H16.75C18.5449 22 20 20.5449 20 18.75V15.7143ZM12 4.5C11.3023 4.5 10.6255 4.58931 9.98036 4.75712C10.3472 4.0124 11.1137 3.5 12 3.5C12.8863 3.5 13.6528 4.0124 14.0196 4.75712C13.3745 4.58931 12.6977 4.5 12 4.5ZM8 10.4167C8 9.08198 9.08198 8 10.4167 8H13.5833C14.918 8 16 9.08198 16 10.4167C16 11.2911 15.2911 12 14.4167 12H9.58333C8.70888 12 8 11.2911 8 10.4167ZM10.4167 9.5C9.91041 9.5 9.5 9.91041 9.5 10.4167C9.5 10.4627 9.53731 10.5 9.58333 10.5H14.4167C14.4627 10.5 14.5 10.4627 14.5 10.4167C14.5 9.91041 14.0896 9.5 13.5833 9.5H10.4167Z" fill="#212121"/>
</svg>

<svg width="24" height="24" fill="none" viewBox="0 0 24 24" xmlns="http://www.w3.org/2000/svg"><path d="M12 2a3.75 3.75 0 0 0-3.736 3.424A7.999 7.999 0 0 0 4 12.5V14h16v-1.5a7.999 7.999 0 0 0-4.264-7.076A3.75 3.75 0 0 0 12 2Zm8 13.714H9.5v1.536a.75.75 0 0 1-1.5 0v-1.536H4v3.036A3.25 3.25 0 0 0 7.25 22h9.5A3.25 3.25 0 0 0 20 18.75v-3.036ZM12 4.5c-.698 0-1.374.09-2.02.257a2.25 2.25 0 0 1 4.04 0A8.013 8.013 0 0 0 12 4.5Zm-4 5.917A2.417 2.417 0 0 1 10.417 8h3.166A2.417 2.417 0 0 1 16 10.417C16 11.29 15.291 12 14.417 12H9.583A1.583 1.583 0 0 1 8 10.417Zm2.417-.917a.917.917 0 0 0-.917.917c0 .046.037.083.083.083h4.834a.083.083 0 0 0 .083-.083.917.917 0 0 0-.917-.917h-3.166Z" fill="#212121"/></svg>
